src/pos-icons/arrow-left-box.svg

<svg height="24" viewBox="0 0 24 24" width="24" xmlns="http://www.w3.org/2000/svg"><path d="m19 3a2 2 0 0 1 2 2v14a2 2 0 0 1 -2 2h-14a2 2 0 0 1 -2-2v-14c0-1.11.9-2 2-2zm-1 8h-8.5l3.5-3.5-1.42-1.42-5.92 5.92 5.92 5.92 1.42-1.42-3.5-3.5h8.5z"/></svg>

<?xml version="1.0" encoding="UTF-8"?><!DOCTYPE svg PUBLIC "-//W3C//DTD SVG 1.1//EN" "http://www.w3.org/Graphics/SVG/1.1/DTD/svg11.dtd"><svg xmlns="http://www.w3.org/2000/svg" xmlns:xlink="http://www.w3.org/1999/xlink" version="1.1" id="mdi-arrow-left-box" width="24" height="24" viewBox="0 0 24 24"><path d="M19,3A2,2 0 0,1 21,5V19A2,2 0 0,1 19,21H5A2,2 0 0,1 3,19V5C3,3.89 3.9,3 5,3H19M18,11H9.5L13,7.5L11.58,6.08L5.66,12L11.58,17.92L13,16.5L9.5,13H18V11Z" /></svg>
